!!!OTL: "Lass rauschen" ICH HOERTE EIN SICHLEIN RAUSCHEN
!!!ARE: Europa, Mitteleuropa, Deutschland, Franken
!!!SCT: Z1177
!!!YEM: Copyright 1995, estate of Helmut Schaffrath.
**kern
*ICvox
*Ivox
*M3/8
*k[b-]
*F:
{8c
=1
8f
8f
8a
=2
8.cc
16dd
16cc
16b-
=3
4.a
=4
8g
8r}
{8g
=5
8a
8b-
8cc
=6
8cc
8b-
8a
=7
4g
8r
=8
4r}
{8cc
=9
8a
8b-
8cc
=10
8a
8b-
8cc
=11
4dd
8cc
=12
4.b-}
=13
{8a
8cc
8a
=14
8g
8f
8g
=15
4f}
==
!!!AGN: Liebes - Lied
!!!ONB: ESAC (Essen Associative Code) Database: ZUCCAL
!!!AMT: simple triple
!!!AIN: vox
!!!EED: Helmut Schaffrath
!!!EEV: 1.0
*-
